svgs/tapatalk_pro.svg

<?xml version="1.0" encoding="UTF-8" standalone="no"?>
<svg
   id="Layer_1"
   data-name="Layer 1"
   viewBox="0 0 24 24"
   version="1.1"
   sodipodi:docname="tapatalk_pro.svg"
   inkscape:version="1.1.1 (3bf5ae0d25, 2021-09-20)"
   xmlns:inkscape="http://www.inkscape.org/namespaces/inkscape"
   xmlns:sodipodi="http://sodipodi.sourceforge.net/DTD/sodipodi-0.dtd"
   xmlns="http://www.w3.org/2000/svg"
   xmlns:svg="http://www.w3.org/2000/svg">
  <defs
     id="defs17" />
  <sodipodi:namedview
     id="namedview15"
     pagecolor="#ffffff"
     bordercolor="#666666"
     borderopacity="1.0"
     inkscape:pageshadow="2"
     inkscape:pageopacity="0.0"
     inkscape:pagecheckerboard="0"
     showgrid="false"
     inkscape:zoom="32.375"
     inkscape:cx="11.984556"
     inkscape:cy="12"
     inkscape:window-width="2560"
     inkscape:window-height="1015"
     inkscape:window-x="0"
     inkscape:window-y="32"
     inkscape:window-maximized="1"
     inkscape:current-layer="Layer_1" />
  <g
     id="g12"
     transform="matrix(1.0003465,0,0,1.0003465,-0.00418656,-0.00527163)">
    <path
       d="m 20.25483,6.78036 h -5.9216 A 0.32447,0.32447 0 0 1 14.00865,6.45577 V 2.71069 a 0.32448,0.32448 0 0 1 0.32458,-0.3246 h 0.28133 A 9.71727,9.71727 0 0 0 4.07494,17.4581 l -1.45471,3.85738 a 0.50414,0.50414 0 0 0 0.75471,0.59521 l 3.128,-2.11975 A 9.71289,9.71289 0 0 0 20.91274,8.122 9.6177,9.6177 0 0 0 20.25483,6.78036 Z M 8.08945,9.94015 11.50914,5.54906 a 0.24252,0.24252 0 0 1 0.4337,0.1492 v 2.67886 h 2.22492 c 0.2861,0 0.2861,2.12849 0,2.12849 H 8.36563 A 0.35009,0.35009 0 0 1 8.08945,9.94015 Z m 6.56243,8.23736 a 6.9373,6.9373 0 0 1 -3.832,-0.1861 2.9569,2.9569 0 0 1 -1.50071,-2.55268 v -3.884 l 2.62328,-0.53848 v 3.6193 c 0,0 -0.04285,1.1079 0.70992,1.42534 a 3.87385,3.87385 0 0 0 1.73166,-0.0496 4.31181,4.31181 0 0 1 0.26785,2.16622 z"
       id="path2" />
    <path
       d="m 18.06521,3.75945 h -0.40433 v 0.73331 h 0.40635 a 0.41638,0.41638 0 0 0 0.29361,-0.09643 0.346,0.346 0 0 0 0.104,-0.26586 0.36855,0.36855 0 0 0 -0.09839,-0.27181 0.40643,0.40643 0 0 0 -0.30124,-0.09921 z"
       id="path4" />
    <path
       d="m 14.40546,2.7829 v 3.60065 h 6.076 l 0.11505,0.19484 q 0.22977,0.38927 0.42541,0.80076 L 21.78019,6.48394 A 0.07708,0.07708 0 0 0 21.79887,6.43315 V 2.7829 Z m 2.16063,1.944 A 1.02344,1.02344 0 0 1 15.88594,4.93404 H 15.44468 V 5.79472 H 14.94115 V 3.35193 h 0.95312 a 1.10388,1.10388 0 0 1 0.48412,0.1004 0.74594,0.74594 0 0 1 0.32143,0.28609 0.80152,0.80152 0 0 1 0.1123,0.42221 0.70158,0.70158 0 0 1 -0.24603,0.56624 z m 2.49432,1.06782 H 18.52 L 18.06212,4.90031 H 17.66093 V 5.79472 H 17.15779 V 3.35193 h 0.90747 A 1.02554,1.02554 0 0 1 18.73309,3.54478 0.66523,0.66523 0 0 1 18.968,4.09 0.7549,0.7549 0 0 1 18.86008,4.507 0.74,0.74 0 0 1 18.53194,4.77287 l 0.52852,0.99837 z m 2.29673,-1.16623 a 1.47349,1.47349 0 0 1 -0.12738,0.63252 0.962,0.962 0 0 1 -0.365,0.41982 1.07842,1.07842 0 0 1 -1.08646,0.00159 0.971,0.971 0 0 1 -0.36906,-0.417 1.43332,1.43332 0 0 1 -0.13253,-0.62338 V 4.52133 a 1.46507,1.46507 0 0 1 0.13016,-0.6353 0.969,0.969 0 0 1 0.36744,-0.421 1.07694,1.07694 0 0 1 1.08568,0 0.97437,0.97437 0 0 1 0.36744,0.421 1.46635,1.46635 0 0 1 0.12974,0.63371 z"
       id="path6" />
    <path
       d="m 20.3171,3.73445 a 0.44747,0.44747 0 0 0 -0.39084,0.19722 1.00955,1.00955 0 0 0 -0.13927,0.57775 v 0.119 a 1.04029,1.04029 0 0 0 0.1373,0.58054 0.48186,0.48186 0 0 0 0.78528,0.00754 1.03592,1.03592 0 0 0 0.13768,-0.57935 V 4.51776 A 1.028,1.028 0 0 0 20.70957,3.93405 0.44861,0.44861 0 0 0 20.3171,3.73445 Z"
       id="path8" />
    <path
       d="m 15.90621,3.75945 h -0.46153 v 0.76664 h 0.44959 A 0.44143,0.44143 0 0 0 16.19862,4.43244 0.34133,0.34133 0 0 0 16.30379,4.1638 0.40223,0.40223 0 0 0 16.19784,3.87373 0.39441,0.39441 0 0 0 15.90621,3.75945 Z"
       id="path10" />
  </g>
</svg>

<svg xmlns="http://www.w3.org/2000/svg" data-name="Layer 1" viewBox="0 0 24 24"><path d="M20.258 6.777h-5.924a.325.325 0 0 1-.325-.324V2.706a.325.325 0 0 1 .325-.324h.281A9.72 9.72 0 0 0 4.072 17.459l-1.455 3.859a.504.504 0 0 0 .755.595l3.129-2.12A9.716 9.716 0 0 0 20.916 8.12a9.621 9.621 0 0 0-.658-1.343M8.088 9.938l3.42-4.392a.243.243 0 0 1 .435.149v2.68h2.225c.287 0 .287 2.129 0 2.129H8.364a.35.35 0 0 1-.276-.566m6.565 8.24a6.94 6.94 0 0 1-3.834-.186 2.958 2.958 0 0 1-1.5-2.553v-3.886l2.623-.538v3.62s-.042 1.109.71 1.426a3.875 3.875 0 0 0 1.733-.05 4.313 4.313 0 0 1 .268 2.168zm3.414-14.423h-.404v.734h.406a.417.417 0 0 0 .294-.096.346.346 0 0 0 .104-.266.369.369 0 0 0-.098-.272.407.407 0 0 0-.302-.1z"/><path d="M14.406 2.779V6.38h6.078l.115.195q.23.39.426.801l.759-.895a.077.077 0 0 0 .018-.05V2.778Zm2.162 1.944a1.024 1.024 0 0 1-.68.207h-.442v.861h-.504V3.348h.954a1.104 1.104 0 0 1 .484.1.746.746 0 0 1 .321.286.802.802 0 0 1 .113.423.702.702 0 0 1-.246.566zm2.495 1.068h-.54l-.459-.894h-.401v.894h-.503V3.348h.907a1.026 1.026 0 0 1 .668.193.665.665 0 0 1 .235.545.755.755 0 0 1-.108.417.74.74 0 0 1-.328.266l.529.999zm2.297-1.166a1.474 1.474 0 0 1-.127.633.962.962 0 0 1-.365.42 1.079 1.079 0 0 1-1.087.001.971.971 0 0 1-.37-.417 1.434 1.434 0 0 1-.132-.624v-.12a1.466 1.466 0 0 1 .13-.636.97.97 0 0 1 .368-.421 1.077 1.077 0 0 1 1.086 0 .975.975 0 0 1 .368.421 1.467 1.467 0 0 1 .13.634z"/><path d="M20.32 3.73a.448.448 0 0 0-.391.198 1.01 1.01 0 0 0-.14.578v.119a1.04 1.04 0 0 0 .138.58.482.482 0 0 0 .786.008 1.036 1.036 0 0 0 .137-.58v-.119a1.028 1.028 0 0 0-.137-.584.449.449 0 0 0-.393-.2m-4.412.025h-.462v.767h.45a.442.442 0 0 0 .304-.093.341.341 0 0 0 .105-.269.402.402 0 0 0-.106-.29.395.395 0 0 0-.291-.115"/></svg>
